!!!COM: Palestrina, Giovanni Perluigi da
!!!OPR: Alma Redemptoris mater
!!!OTL: Agnus II
**kern	**kern	**kern	**kern	**kern	**kern
*Ibass	*Ibass	*Itenor	*Icalto	*Icalto	*Icant
!Bassus 2	!Bassus 1	!Tenor	!Altus 2	!Altus 1	!Cantus
*clefF4	*clefF4	*clefGv2	*clefG2	*clefG2	*clefG2
*k[b-]	*k[b-]	*k[b-]	*k[b-]	*k[b-]	*k[b-]
*F:ion	*F:ion	*F:ion	*F:ion	*F:ion	*F:ion
*M4/2	*M4/2	*M4/2	*M4/2	*M4/2	*M4/2
=1	=1	=1	=1	=1	=1
0r	0r	0r	0r	0r	1.ff
.	.	.	.	.	2ee
=2	=2	=2	=2	=2	=2
0r	0r	1r	0r	0r	1dd
.	.	[1f	.	.	2.cc
.	.	.	.	.	4b-
=3	=3	=3	=3	=3	=3
0r	0r	2f]	1.cc	0r	2a
.	.	2e	.	.	2g
.	.	1d	.	.	2f
.	.	.	2b-	.	[2ff
=4	=4	=4	=4	=4	=4
0r	0r	2.c	2a	1.cc	2ff]
.	.	.	2g	.	4ee
.	.	4B-	.	.	4dd
.	.	2A	2c	.	4ee
.	.	.	.	.	4cc
.	.	2G	2g	2b-	4dd
.	.	.	.	.	4ee
=5	=5	=5	=5	=5	=5
0r	0r	2F	1cc	2.a	2.ff
.	.	2A	.	.	.
.	.	.	.	4g	4ee
.	.	2B-	4b-	2f	2dd
.	.	.	4a	.	.
.	.	2c	4g	2e	[2cc
.	.	.	4f	.	.
=6	=6	=6	=6	=6	=6
1r	0r	1G	2.g	2d	2cc]
.	.	.	.	1g	2b
.	.	.	4f	.	.
[1c	.	1A	2e	.	1cc
.	.	.	2c	2f	.
=7	=7	=7	=7	=7	=7
2c]	0r	2G	1g	2e	1r
2B-	.	2g	.	2d	.
2.A	.	2f	1a	2c	2r
.	.	2e	.	2e	2cc
4G	.	.	.	.	.
=8	=8	=8	=8	=8	=8
2F	0r	2d	2r	2f	2dd
2E	.	1c	2g	2g	2ee
1D	.	.	2.f	2a	1ff
.	.	2B	.	[2f	.
.	.	.	4g	.	.
=9	=9	=9	=9	=9	=9
1C	1.c	1c	2a	2f]	2r
.	.	.	2g	2e	2cc
1G	.	1r	1g	1d	1dd
.	2B-	.	.	.	.
=10	=10	=10	=10	=10	=10
2.c	2.A	2r	2r	0c	2ee
.	.	1F	4f	.	4a
4B-	4G	.	4g	.	4b-
2A	2F	.	4a	.	4cc
.	.	.	4b-	.	4dd
2G	2E	2G	[2cc	.	4ee
.	.	.	.	.	4cc
=11	=11	=11	=11	=11	=11
1F	1D	2A	2cc]	1r	4dd
.	.	.	.	.	4ee
.	.	4G	2b-	.	1ff
.	.	4F	.	.	.
1r	1C	1G	2cc	2r	.
.	.	.	2g	2cc	2ee
=12	=12	=12	=12	=12	=12
2r	1F	2F	1a	2.cc	2ff
2F	.	2f	.	.	2cc
.	.	.	.	4b-	.
2.F	1r	1f	1r	2.a	2.cc
4G	.	.	.	4g	4b-
=13	=13	=13	=13	=13	=13
4A	1r	0c	1cc	2f	2a
4B-	.	.	.	.	.
2c	.	.	.	2e	2g
1F	2r	.	2.cc	2f	1a
.	2F	.	.	2cc	.
.	.	.	4b-	.	.
=14	=14	=14	=14	=14	=14
0r	2.F	0r	2.a	2.cc	4f
.	.	.	.	.	4g
.	.	.	.	.	4a
.	4G	.	4g	4b-	4b-
.	4A	.	2f	2a	1cc
.	4B-	.	.	.	.
.	2c	.	2e	2g	.
=15	=15	=15	=15	=15	=15
0r	2F	0r	1f	2a	2cc
.	2B-	.	.	1b-	2.dd
.	2G	.	2g	.	.
.	.	.	.	.	4b-
.	2A	.	[2f	2a	2cc
=16	=16	=16	=16	=16	=16
1r	2B-	2r	2f]	1g	2dd
.	2c	2c	2e	.	4cc
.	.	.	.	.	4b-
2r	1F	2.c	1f	1f	2.a
2F	.	.	.	.	.
.	.	4B-	.	.	4b-
=17	=17	=17	=17	=17	=17
2.F	0r	4A	1c	2r	1cc
.	.	4G	.	.	.
.	.	2A	.	2f	.
4E	.	.	.	.	.
2D	.	2B-	2d	2f	2r
2C	.	2c	2e	2e	2g
=18	=18	=18	=18	=18	=18
2D	0r	1B-	2f	2d	0b-
1E-	.	.	1g	2.B-	.
.	.	2G	.	.	.
.	.	.	.	4c	.
2D	.	[2B-	2f	4d	.
.	.	.	.	4B-	.
=19	=19	=19	=19	=19	=19
1C	1r	2B-]	2g	1e-	1cc
.	.	2A	2c	.	.
[1BB-	2r	1B-	2f	[1d	2dd
.	2B-	.	4B-	.	[2ff
.	.	.	4c	.	.
=20	=20	=20	=20	=20	=20
1BB-]	2.B-	2r	4d	2d]	4ff]
.	.	.	4e-	.	4ee-
.	.	2d	2f	4B-	4dd
.	4A	.	.	4c	4cc
1r	2G	2d	2g	4d	2b-
.	.	.	.	4e	.
.	2F	2c	2a	2f	2a
=21	=21	=21	=21	=21	=21
0r	2G	4B-	1g	1d	4b-
.	.	4A	.	.	4cc
.	1B-	2G	.	.	4dd
.	.	.	.	.	4ee-
.	.	2B-	[1f	1r	2dd
.	2A	2c	.	.	[2cc
=22	=22	=22	=22	=22	=22
0r	1G	2d	2f]	1r	4cc]
.	.	.	.	.	4b-
.	.	2B-	2e	.	1b-
.	1F	1c	1f	2r	.
.	.	.	.	2f	2a
=23	=23	=23	=23	=23	=23
2r	0BB-	1B-	2.d	2.f	2b-
2B-	.	.	.	.	2dd
.	.	.	4e	4e	.
2.B-	.	1r	1f	2d	2.dd
.	.	.	.	4B-	.
4A	.	.	.	4c	4cc
=24	=24	=24	=24	=24	=24
2G	0r	1r	2g	4d	2b-
.	.	.	.	4e	.
2F	.	.	2a	2f	2a
2G	.	2r	1g	1d	2b-
[2B-	.	2G	.	.	[2dd
=25	=25	=25	=25	=25	=25
2B-]	1r	2B-	1f	2d	2dd]
2A	.	2c	.	2f	1cc
1G	2r	1d	2r	2.g	.
.	[2G	.	2d	.	2b
.	.	.	.	4f	.
=26	=26	=26	=26	=26	=26
2C	2G]	1c	2g	2e	1cc
1c	2F	.	2a	2f	.
.	1G	2r	2.g	1d	1r
2B	.	[2g	.	.	.
.	.	.	4f	.	.
=27	=27	=27	=27	=27	=27
1c	1C	2g]	4e	0c	2r
.	.	.	4d	.	.
.	.	2e	4c	.	1cc
.	.	.	4B-	.	.
2.F	1r	2.a	2A	.	.
.	.	.	[2a	.	2a
4G	.	4g	.	.	.
=28	=28	=28	=28	=28	=28
2A	0r	4f	4a]	1r	2cc
.	.	4e	4g	.	.
1B-	.	4d	4f	.	2b-
.	.	4c	4e	.	.
.	.	2B-	1f	2r	2dd
2A	.	2c	.	[2cc	2cc
=29	=29	=29	=29	=29	=29
1G	1r	1d	1g	2cc]	0r
.	.	.	.	2b-	.
2.F	2r	1f	[1a	1cc	.
.	[2c	.	.	.	.
4E	.	.	.	.	.
=30	=30	=30	=30	=30	=30
1D	2c]	1r	2a]	2.f	2r
.	2B	.	2f	.	1ff
.	.	.	.	4g	.
1C	1c	2r	1r	2a	.
.	.	[2c	.	2g	2ee
=31	=31	=31	=31	=31	=31
0r	2.F	2c]	0r	4a	2.ff
.	.	.	.	4b-	.
.	.	2f	.	4cc	.
.	4G	.	.	4b-	8ee
.	.	.	.	.	8dd
.	2A	2e	.	4a	2cc
.	.	.	.	4g	.
.	[2B-	2d	.	4f	2dd
.	.	.	.	4e	.
=32	=32	=32	=32	=32	=32
0r	2B-]	1f	1r	2d	2b-
.	2A	.	.	2c	1cc
.	1G	2.g	2r	1d	.
.	.	.	[2g	.	2b
.	.	4f	.	.	.
=33	=33	=33	=33	=33	=33
2r	1A	2e	2g]	1c	1cc
1c	.	4d	2f	.	.
.	.	4c	.	.	.
.	1G	1d	1g	2r	1r
2B-	.	.	.	[2g	.
=34	=34	=34	=34	=34	=34
1A	0r	0r	1c	2g]	2r
.	.	.	.	2f	1cc
1G	.	.	1d	1g	.
.	.	.	.	.	2b-
=35	=35	=35	=35	=35	=35
0r	0r	0r	2e	2c	1cc
.	.	.	2.a	2.f	.
.	.	.	.	.	2.f
.	.	.	4g	4g	.
.	.	.	4f	4a	.
.	.	.	4e	4g	4g
=36	=36	=36	=36	=36	=36
0r	0r	0r	4d	4f	2a
.	.	.	4c	4e	.
.	.	.	4B-	4d	1b-
.	.	.	4c	4c	.
.	.	.	4d	1B-	.
.	.	.	4e	.	.
.	.	.	[2f	.	2a
=37	=37	=37	=37	=37	=37
0r	1C	2r	2f]	1c	1g
.	.	1c	2e	.	.
.	2F	.	1f	2r	2f
.	2D	2B-	.	2f	[2ff
=38	=38	=38	=38	=38	=38
2r	1C	1.c	2r	2a	2ff]
2C	.	.	1cc	2g	2ee
2F	1r	.	.	1f	2.ff
2D	.	2F	2b-	.	.
.	.	.	.	.	4dd
=39	=39	=39	=39	=39	=39
1C	2r	1G	1cc	2r	4ee
.	.	.	.	.	4ff
.	2C	.	.	4cc	4gg
.	.	.	.	4b-	4ee
2r	2F	1A	2c	4a	2.ff
.	.	.	.	4g	.
2F	2D	.	[2d	[2f	.
.	.	.	.	.	4ee
=40	=40	=40	=40	=40	=40
2B-	2.BB-	1.B-	4d]	2f]	1.dd
.	.	.	4c	.	.
2G	.	.	4d	2B-	.
.	4C	.	4e	.	.
4F	4D	.	[1f	2r	.
4G	4E	.	.	.	.
4A	2F	2A	.	[2c	2cc
4B-	.	.	.	.	.
=41	=41	=41	=41	=41	=41
0c	0C	0G	2f]	2c]	0cc
.	.	.	4e	2c	.
.	.	.	4d	.	.
.	.	.	1e	1g	.
=42	=42	=42	=42	=42	=42
1.A	[0F	[0F	[0f	[0a	[0cc
2F	.	.	.	.	.
=43	=43	=43	=43	=43	=43
0F	0F]	0F]	0f]	0a]	0cc]
==	==	==	==	==	==
*-	*-	*-	*-	*-	*-
!!!CDT: 1525/^1526/-1594/2/2
!!!OCY: Italia
!!!AGN: Mass (Paraphrase)
!!!AST: renaissance, vocal
!!!ASW: Antiphon
!!!PWK: Masses, Book 11
!!!RNB: Cadence finals: C
!!!YOR: Le Opere Complete, v. 28, p. 148
!!!YOO: Rome, Italy: Fratelli Scalera
!!!END: 1992//
!!!EED: John Miller
!!!YEC: Copyright 2000, John Miller
!!!YEN: United States of America
!!!YEM: Rights to all derivative electronic formats reserved.
!!!YEM: Refer to licensing agreement for further details.
!!!YEM: This file must be accompanied by the licensing agreement.
!!!YEM: A copy of the licensing agreement may be found at http://www.music-cog.ohio-state.edu/HumdrumDatabases/Palestrina/license.txt
!!!EMD: converted to Humdrum by Bret Aarden
